!!!OTL: Largum vesper
**kern
*staff1
=--
*clefC4
*k[]
*met(c|)
*M2/2
!LO:TX:Y=123:t=P
4A
4E
2F
1C
=-
!LO:TX:Y=118:t=P
4c
4G
2A
1E
=-
4e
4d
2c
1B
=-
2.e
4d
4c
4d
2B
1A
!!linebreak:original
=-
4A
8A
8A
4B
8B
8B
=-
!LO:TX:Y=-42:t=P
4c
8c
8c
4d
8d
8d
4e
8e
8e
4d
8d
8d
=-
4c
4d
2B
1A
=-=
*-
!!title: @{OTL}, @{GTL}, ed. @{ENC}
!!!pag:
!!!GTL: Hymnbook C
!!!EFL: 
!!!YEM: Creative Commons CC/BY/NC/SA 4.0
!!!ENC: Marcin Konik
!!!END: 2015-0m-dd
!!!EED: Marcin Konik
!!!EEV: 
!!!ONB: Encoded in vim by Marcin Konik
!!!CharacterEncoding: utf-8
!!!RDF**kern: l=long note in original notation
!!!RDF**kern: i=editorial accidental
!!muse2ps: z14jc180F
!!!COM: Anonim
!!!CDT: [?]
!!!TXO: Polish
!!!ODT: 
!!!GTL: Hymnbook C
!!!ARL: Opactwo św. Wojciecha, Staniątki 
!!!voices:	1
